static/images/wnav-logo-border.svg

<svg height="1074" viewBox="0 0 1074 1074" width="1074" xmlns="http://www.w3.org/2000/svg"><g fill="none" fill-rule="evenodd" transform="translate(25 25)"><rect fill="#fff" height="1024" rx="512" stroke="#b4b4b4" stroke-width="50" width="1024"/><path d="m512 82c237.482442 0 430 192.517558 430 430s-192.517558 430-430 430-430-192.517558-430-430 192.517558-430 430-430z" fill="#fff" stroke="#c8c8c8" stroke-dasharray="500 100" stroke-linecap="round" stroke-width="42.5"/><path d="m673.125 290c12.99375 0 23.53725 11.026125 23.746821 23.981822l.003179.393178v173.75c0 .276142.223858.5.5.5h36.625c13.254834 0 24 10.745166 24 24s-10.745166 24-24 24h-36.625c-.276142 0-.5.223858-.5.5v172.25c0 12.99375-9.188438 22.924688-22.107381 23.122007l-.392619.002993h-2.5c-10.458984 0-17.889862-6.056213-25.273426-14.591689l-.351574-.408311-141.29086-180.683001c-.094764-.121184-.240036-.191999-.393873-.191999h-129.065267c-.276142 0-.5.223858-.5.5v172.25c0 12.99375-10.413563 24.149813-23.963445 24.375h-.411555c-12.99375 0-23.53725-11.026125-23.746821-23.981822l-.003179-.393178v-172.25c0-.276142-.223858-.5-.5-.5h-36.375c-13.254834 0-24-10.745166-24-24s10.745166-24 24-24h36.375c.276142 0 .5-.223858.5-.5v-172.5c0-12.99375 11.026125-24.149812 23.981822-24.371634l.393178-.003366h6.875c10.903846 0 17.697781 5.284172 24.365257 13.576256l.634743.798744 143.345859 182.808525c.09478.120874.239859.191475.393461.191475h121.38568c.276142 0 .5-.223858.5-.5v-173.75c0-12.99375 10.413562-24.149812 23.963445-24.375zm-24.875 246.625h-82.962549c-.276143 0-.5.223858-.5.5 0 .111864.037512.220497.106538.308525l82.962549 105.802044c.170394.217303.484684.255331.701987.084937.120874-.094781.191475-.239859.191475-.393462v-105.802044c0-.276142-.223858-.5-.5-.5zm-273.25-164.548915v116.048915c0 .276142.223858.5.5.5h90.748285c.276142 0 .5-.223858.5-.5 0-.111636-.03736-.220061-.106128-.308001l-90.748285-116.048915c-.170104-.21753-.484344-.255976-.701873-.085871-.121184.094763-.191999.240036-.191999.393872z" fill="#414141" fill-rule="nonzero"/></g></svg>

<?xml version="1.0" encoding="UTF-8"?>
<svg width="1074px" height="1074px" viewBox="0 0 1074 1074" version="1.1" xmlns="http://www.w3.org/2000/svg" xmlns:xlink="http://www.w3.org/1999/xlink">
    <!-- Generator: Sketch 63.1 (92452) - https://sketch.com -->
    <title>N</title>
    <desc>Created with Sketch.</desc>
    <g id="Final" stroke="none" stroke-width="1" fill="none" fill-rule="evenodd">
        <g id="Logos-|-Selected-|-Bordered-|-Including-wNAV" transform="translate(-1399.000000, -175.000000)">
            <g id="N" transform="translate(1424.000000, 200.000000)">
                <rect id="Background" stroke="#B4B4B4" stroke-width="50" fill="#FFFFFF" x="0" y="0" width="1024" height="1024" rx="512"></rect>
                <path d="M512,82 C749.482442,82 942,274.517558 942,512 C942,749.482442 749.482442,942 512,942 C274.517558,942 82,749.482442 82,512 C82,274.517558 274.517558,82 512,82 Z" id="Background" stroke="#C8C8C8" stroke-width="42.5" fill="#FFFFFF" stroke-linecap="round" stroke-dasharray="500,100"></path>
                <path d="M673.125,290 C686.11875,290 696.66225,301.026125 696.871821,313.981822 L696.875,314.375 L696.875,488.125 C696.875,488.401142 697.098858,488.625 697.375,488.625 L734,488.625 L734,488.625 C747.254834,488.625 758,499.370166 758,512.625 C758,525.879834 747.254834,536.625 734,536.625 L697.375,536.625 C697.098858,536.625 696.875,536.848858 696.875,537.125 L696.875,709.375 L696.875,709.375 C696.875,722.36875 687.686562,732.299688 674.767619,732.497007 L674.375,732.5 L671.875,732.5 C661.416016,732.5 653.985138,726.443787 646.601574,717.908311 L646.25,717.5 L504.95914,536.816999 C504.864376,536.695815 504.719104,536.625 504.565267,536.625 L375.5,536.625 C375.223858,536.625 375,536.848858 375,537.125 L375,709.375 L375,709.375 C375,722.36875 364.586437,733.524813 351.036555,733.75 L350.625,733.75 C337.63125,733.75 327.08775,722.723875 326.878179,709.768178 L326.875,709.375 L326.875,537.125 C326.875,536.848858 326.651142,536.625 326.375,536.625 L290,536.625 L290,536.625 C276.745166,536.625 266,525.879834 266,512.625 C266,499.370166 276.745166,488.625 290,488.625 L326.375,488.625 C326.651142,488.625 326.875,488.401142 326.875,488.125 L326.875,315.625 L326.875,315.625 C326.875,302.63125 337.901125,291.475188 350.856822,291.253366 L351.25,291.25 L358.125,291.25 C369.028846,291.25 375.822781,296.534172 382.490257,304.826256 L383.125,305.625 L526.470859,488.433525 C526.565639,488.554399 526.710718,488.625 526.86432,488.625 L648.25,488.625 C648.526142,488.625 648.75,488.401142 648.75,488.125 L648.75,314.375 L648.75,314.375 C648.75,301.38125 659.163562,290.225188 672.713445,290 L673.125,290 Z M648.25,536.625 L565.287451,536.625 C565.011308,536.625 564.787451,536.848858 564.787451,537.125 C564.787451,537.236864 564.824963,537.345497 564.893989,537.433525 L647.856538,643.235569 C648.026932,643.452872 648.341222,643.4909 648.558525,643.320506 C648.679399,643.225725 648.75,643.080647 648.75,642.927044 L648.75,537.125 C648.75,536.848858 648.526142,536.625 648.25,536.625 Z M375,372.076085 L375,488.125 C375,488.401142 375.223858,488.625 375.5,488.625 L466.248285,488.625 C466.524427,488.625 466.748285,488.401142 466.748285,488.125 C466.748285,488.013364 466.710925,487.904939 466.642157,487.816999 L375.893872,371.768084 C375.723768,371.550554 375.409528,371.512108 375.191999,371.682213 C375.070815,371.776976 375,371.922249 375,372.076085 Z" id="Shape" fill="#414141" fill-rule="nonzero"></path>
            </g>
        </g>
    </g>
</svg>
